X: 1945
T: Vuslatından Gayrı El Çektim
C: Hacı Ârif Bey
O: Turkey
F: http://compmusic.upf.edu/node/140
N: rast--sarki--musemmen--vuslatindan_gayri--haci_arif_bey
N: makam= rast
N: form= sarki
N: usul= musemmen = 8/8
M: 8/8
L: 1/16
K: C _1/4B ^f  
Q: 1/4=114
%%MIDI tuningsystem comma53
B4 ABAG FEDE FGAB  | c4 A2B2 c2d4z2  | \
w:  ARANAĞME  |   | 
d4 c2B4g4a2  | 
w:   | 
f4 d2eg fed4z2  | d4 a2g2 =fed4e2  | \
w:   |   | 
c4 e2de dcB6  | 
w:   | 
A4 B2c2 e2d6  | B4 A2A3GG6  | B4 ABAG FEDE FGAB  | 
w:   |   |  ARANAĞME  | 
c4 A2B2 c2d4z2  | d4 c2B4g4a2  | f4 d2eg fed4z2  | \
w:   |   |   | 
d4 a2g2 =fed4e2  | 
w:   | 
c4 e2de dcB6  | A4 B2c2 e2d6  | B4 A2A3GG6  | \
w:   |   |   | 
B4 BAA3GG2 A2B2  | 
w:  Vus la *  tın *  dan   | 
ced2 cBdc BAG6  | c2B2 c2d4_e2 d2g2  | \
w:  gay *  *  rı  *  el  *  *  *  çek  |  tim  *  ye ter  ey   | 
f3_e edd4dc BAG2  | 
w:  bî *  ve *  fâ   SAZ  | 
B4 BAA3GG2 A2B2  | ced2 cBdc BAG6  | \
w:  Vus la *  tın *  dan   |  gay *  *  rı  *  el  *  *  *  çek  | 
c2B2 c2d4_e2 d2g2  | 
w:  tim  *  ye ter  ey   | 
f3_e edd4GA Bcd2  | d4 g2ag fed2 e2f2  | \
w:  bî *  ve *  fâ   SAZ  |  Dil fi gâr  *  *  *  et  | 
agf2 e2d2 dedc BAB2  | 
w:  tin  *  *  be ni  *  *  şim  | 
GAG2 A2B2 c2e2 d2c2  | B3A AGG4GA Bcd2  | \
w:  den  *  *  ge ru  *  ey  |  le  *  sa fâ   SAZ  | 
d4 g2ag fed2 e2f2  | 
w:  Dil fi gâr  *  *  *  et  | 
agf2 e2d2 dedc BAB2  | GAG2 A2B2 c2e2 d2c2  | 
w:  tin  *  *  be ni  *  *  şim  |  den  *  *  ge ru  *  ey  | 
B3A AGG4gf efg2  | g4 g2fg agg6  | fgf2 g2f_e edgf edc2  | 
w:  le  *  sa *  fâ   SAZ  |  Hicr_ i  sû *  *  *  zâ  |  nın *  *  la  her  *  *  *  an   | 
d3c cBB4fg a2gf  | fgf_e edd4gf =efg2  | 
w:  ey *  le *  din  cevr_  |  ü  *  *  *  ce *  fâ   SAZ  | 
g4 g2fg agg6  | fgf2 g2f_e edgf edc2  | \
w:  Hicr_ i  sû *  *  *  zâ  |  nın *  *  la  her  *  *  *  an   | 
d3c cBB4fg a2gf  | 
w:  ey *  le *  din  cevr_  | 
fgf_e edd4GA Bcd2  | d4 g2ag fed2 e2f2  | 
w:  ü  *  *  *  ce *  fâ   SAZ  |  Dil fi gâr  *  *  *  et  | 
agf2 e2d2 dedc BAB2  | GAG2 A2B2 c2e2 d2c2  | 
w:  tin  *  *  be ni  *  *  şim  |  den  *  *  ge ru  *  ey  | 
B3A AGG4GA Bcd2  | d4 g2ag fed2 e2f2  | \
w:  le  *  sa fâ   SAZ  |  Dil fi gâr  *  *  *  et  | 
agf2 e2d2 dedc BAB2  | 
w:  tin  *  *  be ni  *  *  şim  | 
GAG2 A2B2 c2e2 d2c2  | B3A AGG4|
w:  den  *  *  ge ru  *  ey  |  le  *  sa *  fâ    | 


